img/svg/device/htc.svg

<?xml version="1.0" encoding="iso-8859-1"?>
<!-- Generator: Adobe Illustrator 21.0.2, SVG Export Plug-In . SVG Version: 6.00 Build 0)  -->
<svg version="1.1" id="&#x56FE;&#x5C42;_1" xmlns="http://www.w3.org/2000/svg" xmlns:xlink="http://www.w3.org/1999/xlink" x="0px"
	 y="0px" viewBox="0 0 16 16" style="enable-background:new 0 0 16 16;" xml:space="preserve">
<path d="M13.638,9.141c0.449-0.004,1.331-0.008,1.331-0.008v0.851c0,0-2.902,0.004-3.237,0c-0.408-0.005-0.838-0.143-1.12-0.43
	c-0.264-0.268-0.422-0.65-0.468-1.137c-0.019-0.19-0.014-0.509,0-0.753c0.025-0.453,0.19-0.9,0.468-1.181
	c0.293-0.298,0.67-0.458,1.12-0.475c0.205-0.007,0.527-0.007,1.169-0.004c0.478,0.002,2.068,0.004,2.068,0.004v0.828l-1.996-0.004
	c-0.686-0.003-1.065-0.004-1.206,0.004c-0.395,0.019-0.75,0.423-0.791,0.847c-0.022,0.225-0.022,0.462,0.001,0.748
	c0.035,0.435,0.337,0.663,0.79,0.702C11.99,9.153,12.792,9.146,13.638,9.141 M5.112,6.053V6.88h1.97l0,3.106h0.831l0-3.106h1.97
	V6.053L5.112,6.053L5.112,6.053z M4.87,7.617C4.864,7.172,4.706,6.79,4.402,6.481c-0.318-0.323-0.803-0.458-1.12-0.475
	c-0.276-0.016-1.364-0.011-1.619,0C1.303,6.021,1.041,6.129,0.91,6.227c-0.001,0.001-0.003,0-0.003-0.002v-1.19H0.075v4.951h0.831
	c0,0-0.016-2.13,0.002-2.367C0.941,7.199,1.26,6.868,1.667,6.833c0.326-0.028,1.306-0.02,1.613,0
	c0.422,0.029,0.733,0.359,0.758,0.803c0.008,0.164,0.001,2.35,0.001,2.35h0.832C4.871,9.986,4.872,7.808,4.87,7.617"/>
</svg>

<svg xmlns="http://www.w3.org/2000/svg" viewBox="0 0 16 16"><title>htc</title><path d="M13.64,9.14c-.85,0-1.65,0-1.87,0a.76.76,0,0,1-.79-.7,4,4,0,0,1,0-.75.94.94,0,0,1,.79-.85H15V6H11.73a1.6,1.6,0,0,0-1.12.48,1.85,1.85,0,0,0-.47,1.18,5.8,5.8,0,0,0,0,.75,1.81,1.81,0,0,0,.47,1.14,1.61,1.61,0,0,0,1.12.43H15V9.13H13.64"/><path d="M5.11,6.05v.83h2V10h.83V6.88h2V6.05H5.11Z"/><path d="M4.87,7.62A1.6,1.6,0,0,0,4.4,6.48,1.79,1.79,0,0,0,3.28,6C3,6,1.92,6,1.66,6a1.41,1.41,0,0,0-.75.22h0V5H.08v5H.91s0-2.13,0-2.37a.84.84,0,0,1,.76-.79c.33,0,1.31,0,1.61,0a.82.82,0,0,1,.76.8C4,7.8,4,10,4,10h.83s0-2.18,0-2.37"/></svg>
